assets/images/slider-background.svg

<?xml version="1.0" encoding="UTF-8"?>
<svg width="220px" height="14px" viewBox="0 0 220 14" version="1.1" xmlns="http://www.w3.org/2000/svg" xmlns:xlink="http://www.w3.org/1999/xlink">
    <title>BE12FC0E-FD5E-426C-9BBF-550FC50194C3</title>
    <defs></defs>
    <g id="Main" stroke="none" stroke-width="1" fill="none" fill-rule="evenodd">
        <g id="Popupovi---razmaci" transform="translate(-678.000000, -342.000000)" fill="#D9D9D9">
            <g id="Group-5-Copy-4" transform="translate(618.000000, 241.000000)">
                <g id="Group-4" transform="translate(19.000000, 74.000000)">
                    <g id="Group-16" transform="translate(38.000000, 27.000000)">
                        <path d="M3.99962831,5.97241081 L216.002602,0.190511533 L216.002602,0.190511533 C219.763198,0.0879498169 222.894906,3.05337273 222.997468,6.81396899 C222.999156,6.87585608 223,6.9377633 223,6.9996734 L223,6.9996734 L223,6.9996734 C223,10.761668 219.950301,13.8113671 216.188306,13.8113671 C216.126396,13.8113671 216.064489,13.8105231 216.002602,13.8088353 L3.99962831,8.02693599 L3.99962831,8.02693599 C3.44319453,8.01176053 3,7.55631408 3,6.9996734 L3,6.9996734 L3,6.9996734 C3,6.44303273 3.44319453,5.98758628 3.99962831,5.97241081 Z" id="slider-background"></path>
                    </g>
                </g>
            </g>
        </g>
    </g>
</svg>

<?xml version="1.0" encoding="utf-8"?>
<!-- Generator: Adobe Illustrator 26.5.0, SVG Export Plug-In . SVG Version: 6.00 Build 0)  -->
<svg version="1.1" id="Layer_1" xmlns="http://www.w3.org/2000/svg" xmlns:xlink="http://www.w3.org/1999/xlink" x="0px" y="0px"
	 viewBox="0 0 220 14" style="enable-background:new 0 0 220 14;" xml:space="preserve">
<style type="text/css">
	.st0{fill-rule:evenodd;clip-rule:evenodd;fill:#D9D9D9;}
</style>
<g id="Main">
	<g id="Popupovi---razmaci" transform="translate(-678.000000, -342.000000)">
		<g id="Group-5-Copy-4" transform="translate(618.000000, 241.000000)">
			<g id="Group-4" transform="translate(19.000000, 74.000000)">
				<g id="Group-16" transform="translate(38.000000, 27.000000)">
					<path id="slider-background" class="st0" d="M4,6l212-5.8l0,0c3.8-0.1,6.9,2.9,7,6.6c0,0.1,0,0.1,0,0.2l0,0l0,0
						c0,3.8-3,6.8-6.8,6.8c-0.1,0-0.1,0-0.2,0L4,8l0,0C3.4,8,3,7.6,3,7l0,0l0,0C3,6.4,3.4,6,4,6z"/>
				</g>
			</g>
		</g>
	</g>
</g>
<g>
	<path d="M214.7,12.7H5.3C2.4,12.7,0,10.2,0,7s2.4-5.7,5.3-5.7h209.5c2.9,0,5.3,2.6,5.3,5.7S217.6,12.7,214.7,12.7z"/>
</g>
</svg>
